X:168
T:Spud Gathering* (r)
B:NFID.242b  ("untitled reel")
168spud
S:JL
L:1/8
M:C
R:reel
Q:360
K:G
D|G2BG dGBd|cBcd efga|bggg agef|gedB AGED|
G2BG dGBd|cBcd efga|bggg agef|1 gedc BGG:|2 gedc BGG2||
bggg agef|gedB AGEG|DB,B,C DEGA|Bdgb age2|
bggg agef|gedB AGEG|DB,B,C DEGA|1 Bdgd BGG2:|\
[2 Bdgd BGG "_DC"||

%%%

